atarist/_inc/system.svg

<?xml version="1.0" encoding="utf-8"?>
<svg version="1.1" id="Ebene_2" x="0px" y="0px" enable-background="new 0 0 566.929 92.934" xmlns="http://www.w3.org/2000/svg">
  <g id="g3" transform="matrix(0.352778, 0, 0, 0.352778, 0, 0.183092)">
    <g id="g5" style="fill:#ffffff;fill-opacity:1">
      <path d="M162.729,4.833c3.574-4.573,10.968-5.352,15.352-1.52c1.792,1.51,3.048,3.595,3.689,5.837    c8.115,27.924,16.267,55.834,24.372,83.76c-4.791,0.003-9.582-0.006-14.371,0.003c-2.258-7.694-4.463-15.41-6.693-23.114    c-9.26-0.027-18.519-0.008-27.777-0.011c-2.269,7.701-4.505,15.411-6.733,23.13c-4.763-0.019-9.525-0.008-14.29-0.011    c7.71-26.636,15.428-53.272,23.175-79.901C160.374,10.221,160.718,7.107,162.729,4.833 M171.183,21.943    c-3.396,11.568-6.723,23.16-10.098,34.734c6.73,0.03,13.458,0.011,20.186,0.011C177.903,45.107,174.551,33.525,171.183,21.943z" id="path7" style="fill-opacity: 1;"/>
      <path d="M263.614,5.434c2.495-3.62,7.32-5.379,11.567-4.261c3.89,0.897,6.865,4.248,7.893,8.021    c8.106,27.905,16.241,55.796,24.346,83.694c-4.794,0.043-9.589,0-14.384,0.021c-2.228-7.704-4.435-15.421-6.681-23.122    c-9.245,0.003-18.489-0.02-27.733,0.006c-2.21,7.713-4.487,15.405-6.698,23.113c-4.759,0.003-9.517,0-14.274,0.003    c7.704-26.78,15.501-53.539,23.268-80.303C261.733,10.187,262.046,7.523,263.614,5.434 M262.448,56.688    c6.702,0.009,13.401,0.003,20.102,0.003c-3.332-11.604-6.719-23.193-10.045-34.8C269.158,33.491,265.777,45.083,262.448,56.688z" id="path9" style="fill-opacity: 1;"/>
      <path d="M195.418,1.034c17.325,0,34.65,0,51.97,0c0,4.675,0,9.344,0,14.018c-6.378,0.005-12.755-0.007-19.131,0.005    c0,25.952,0.004,51.902-0.003,77.854c-4.566,0-9.139,0-13.706,0c0-25.951-0.004-51.901,0.004-77.854    c-6.379-0.012-12.755,0-19.133-0.005C195.418,10.379,195.415,5.708,195.418,1.034z" id="path11" style="fill-opacity: 1;"/>
      <path d="M322.652,1.604c1.316-0.455,2.721-0.61,4.111-0.577c5.462,0.021,10.923,0.003,16.388,0.007    c9.198,0.168,17.979,5.88,21.961,14.159c2.756,5.377,3.041,11.631,2.345,17.53c-0.476,6.176-3.069,12.349-7.814,16.44    c-2.508,2.238-5.632,3.592-8.314,5.578c-1.474,1.126-1.544,3.302-0.785,4.861c7.25,11.194,14.789,22.207,22.188,33.307    c-5.412,0.011-10.825-0.014-16.238,0.011c-7.088-10.645-14.101-21.344-21.16-32c-2.075-3.031-2.637-7.051-1.396-10.516    c0.969-2.654,3.292-4.599,5.876-5.599c4.935-1.882,9.798-4.842,12.533-9.498c2.077-3.503,1.973-7.818,1.039-11.649    c-1.098-4.972-5.943-8.888-11.061-8.714c-3.542,0.024-7.079-0.021-10.614,0.016c-1.6-0.037-3.106,1.353-3.086,2.979    c-0.018,24.99,0.009,49.985-0.006,74.979c-4.603-0.008-9.203,0-13.807-0.008c-0.01-26.902,0.007-53.814-0.01-80.717    C314.825,7.475,318.18,3.037,322.652,1.604z" id="path13" style="fill-opacity: 1;"/>
      <path d="M379.969,1.034c4.842,0,9.682,0,14.528,0c-0.005,30.63,0.004,61.251-0.009,91.876c-4.838-0.011-9.678,0-14.52-0.003    C379.969,62.282,379.969,31.661,379.969,1.034z" id="path15" style="fill-opacity: 1;"/>
    </g>
    <g id="g17" style="fill:#ffffff;fill-opacity:1">
      <path d="M40.963,0.865c2.326-0.007,4.651,0,6.981-0.004c0.008,5.47,0,10.942,0.003,16.41c0.022,4.567-0.106,9.131-0.295,13.694    c-0.312,6.586-0.725,13.188-1.814,19.696c-0.75,4.488-2.305,8.821-4.229,12.932c-3.142,6.622-8.081,12.226-13.632,16.938    c-4.964,4.372-10.892,7.555-17.126,9.703C7.324,91.455,3.694,92.386,0,92.91c0.003-4.588,0.003-9.179,0-13.765    c4.449-0.67,8.726-2.249,12.696-4.337c4.712-2.492,8.954-5.841,12.526-9.794c3.688-4.077,6.626-8.801,8.856-13.814    c2.627-5.763,4.033-11.994,4.989-18.229c1.198-7.927,1.697-15.951,1.882-23.958C40.979,6.299,40.956,3.583,40.963,0.865z" id="path19" style="fill-opacity: 1;"/>
      <path d="M50.75,0.875c4.283-0.028,8.565-0.003,12.85-0.01c0.001,30.68,0.001,61.364,0,92.042    c-4.274,0.011-8.547-0.019-12.82,0.021c-0.052-9.781-0.007-19.571-0.022-29.351C50.752,42.678,50.766,21.778,50.75,0.875z" id="path21" style="fill-opacity: 1;"/>
      <path d="M66.458,0.865c2.315-0.004,4.627-0.007,6.939,0c-0.076,9.355,0.244,18.73,1.358,28.021    c0.913,7.22,2.201,14.494,5.076,21.218c2.725,6.505,6.654,12.553,11.774,17.431c4.892,4.663,10.814,8.248,17.252,10.309    c1.796,0.571,3.632,1.021,5.501,1.299c-0.001,4.586-0.004,9.171,0,13.757c-3.669-0.499-7.267-1.446-10.769-2.636    c-4.169-1.449-8.202-3.329-11.907-5.742c-2.704-1.733-5.163-3.816-7.524-5.987c-3.894-3.593-7.377-7.67-9.996-12.294    c-2.046-3.598-3.54-7.486-4.711-11.448c-1.073-3.983-1.528-8.107-1.945-12.201c-0.805-8.856-1.106-17.753-1.05-26.64    C66.458,10.923,66.456,5.895,66.458,0.865z" id="path23" style="fill-opacity: 1;"/>
      <path d="M50.75,0.875c0.015,20.902,0.003,41.803,0.008,62.7c0.014,9.78-0.032,19.567,0.022,29.352    c4.273-0.039,8.547-0.01,12.82-0.021c0.001-30.678,0.001-61.361,0-92.045C59.317,0.872,55.034,0.848,50.75,0.875" id="path25" style="fill-opacity: 1;"/>
      <path d="M66.458,0.865c-0.002,5.028,0,10.058,0,15.085c-0.057,8.884,0.245,17.783,1.05,26.64    c0.417,4.094,0.872,8.218,1.945,12.201c1.169,3.962,2.665,7.851,4.711,11.448c2.618,4.624,6.102,8.701,9.996,12.294    c2.363,2.174,4.82,4.254,7.524,5.987c3.705,2.413,7.738,4.29,11.907,5.742c3.501,1.189,7.1,2.134,10.769,2.636    c-0.004-4.586-0.001-9.171,0-13.757c-1.867-0.274-3.706-0.728-5.501-1.299c-6.438-2.061-12.361-5.646-17.252-10.309    c-5.12-4.872-9.049-10.924-11.774-17.431c-2.875-6.724-4.163-13.998-5.076-21.218c-1.115-9.291-1.434-18.666-1.358-28.021    C71.084,0.858,68.771,0.861,66.458,0.865" id="path27" style="fill-opacity: 1;"/>
    </g>
    <g id="g29" style="fill:#ffffff;fill-opacity:1">
      <path d="M432.911,59.248l1.673,1.314c5.853,4.538,12.9,8.242,20.426,8.242c3.225,0,8.361-1.313,8.361-5.377    c0-4.061-4.301-4.418-7.286-5.016l-6.571-1.193c-12.78-2.27-23.531-9.797-23.531-23.893C425.982,11.945,445.454,0,465.044,0    c10.272,0,19.708,2.508,28.548,7.884l-8.84,23.054c-5.613-3.821-11.943-6.808-18.991-6.808c-2.867,0-7.049,1.073-7.049,4.776    c0,3.346,4.063,3.823,6.569,4.419L472.688,35c13.855,3.104,23.89,10.511,23.89,25.801c0,21.5-19.59,32.133-39.06,32.133    c-11.35,0-24.488-3.107-34.642-8.243L432.911,59.248z" id="path31" style="fill-opacity: 1;"/>
      <path d="M498.126,1.433h68.803V26.7l-18.036,0.051V91.5h-32.729V26.75L498.126,26.7V1.433z" id="path33" style="fill-opacity: 1;"/>
    </g>
  </g>
</svg>

<?xml version="1.0" encoding="utf-8"?>
<svg version="1.1" id="Ebene_2" x="0px" y="0px" enable-background="new 0 0 566.929 92.934" xmlns="http://www.w3.org/2000/svg" xmlns:bx="https://boxy-svg.com">
  <g id="g3" transform="matrix(1.058334, 0, 0, 1.058334, 0, 0.549275)" bx:origin="0 0">
    <path d="M 162.729 4.833 C 166.303 0.26 173.697 -0.519 178.081 3.313 C 179.873 4.823 181.129 6.908 181.77 9.15 C 189.885 37.074 198.037 64.984 206.142 92.91 C 201.351 92.913 196.56 92.904 191.771 92.913 C 189.513 85.219 187.308 77.503 185.078 69.799 C 175.818 69.772 166.559 69.791 157.301 69.788 C 155.032 77.489 152.796 85.199 150.568 92.918 C 145.805 92.899 141.043 92.91 136.278 92.907 C 143.988 66.271 151.706 39.635 159.453 13.006 C 160.374 10.221 160.718 7.107 162.729 4.833 M 171.183 21.943 C 167.787 33.511 164.46 45.103 161.085 56.677 C 167.815 56.707 174.543 56.688 181.271 56.688 C 177.903 45.107 174.551 33.525 171.183 21.943 Z" id="path7" style="fill-opacity: 1; fill: rgb(255, 255, 255);"/>
    <path d="M 263.614 5.434 C 266.109 1.814 270.934 0.055 275.181 1.173 C 279.071 2.07 282.046 5.421 283.074 9.194 C 291.18 37.099 299.315 64.99 307.42 92.888 C 302.626 92.931 297.831 92.888 293.036 92.909 C 290.808 85.205 288.601 77.488 286.355 69.787 C 277.11 69.79 267.866 69.767 258.622 69.793 C 256.412 77.506 254.135 85.198 251.924 92.906 C 247.165 92.909 242.407 92.906 237.65 92.909 C 245.354 66.129 253.151 39.37 260.918 12.606 C 261.733 10.187 262.046 7.523 263.614 5.434 M 262.448 56.688 C 269.15 56.697 275.849 56.691 282.55 56.691 C 279.218 45.087 275.831 33.498 272.505 21.891 C 269.158 33.491 265.777 45.083 262.448 56.688 Z" id="path9" style="fill-opacity: 1; fill: rgb(255, 255, 255);"/>
    <path d="M 195.418 1.034 C 212.743 1.034 230.068 1.034 247.388 1.034 C 247.388 5.709 247.388 10.378 247.388 15.052 C 241.01 15.057 234.633 15.045 228.257 15.057 C 228.257 41.009 228.261 66.959 228.254 92.911 C 223.688 92.911 219.115 92.911 214.548 92.911 C 214.548 66.96 214.544 41.01 214.552 15.057 C 208.173 15.045 201.797 15.057 195.419 15.052 C 195.418 10.379 195.415 5.708 195.418 1.034 Z" id="path11" style="fill-opacity: 1; fill: rgb(255, 255, 255);"/>
    <path d="M 322.652 1.604 C 323.968 1.149 325.373 0.994 326.763 1.027 C 332.225 1.048 337.686 1.03 343.151 1.034 C 352.349 1.202 361.13 6.914 365.112 15.193 C 367.868 20.57 368.153 26.824 367.457 32.723 C 366.981 38.899 364.388 45.072 359.643 49.163 C 357.135 51.401 354.011 52.755 351.329 54.741 C 349.855 55.867 349.785 58.043 350.544 59.602 C 357.794 70.796 365.333 81.809 372.732 92.909 C 367.32 92.92 361.907 92.895 356.494 92.92 C 349.406 82.275 342.393 71.576 335.334 60.92 C 333.259 57.889 332.697 53.869 333.938 50.404 C 334.907 47.75 337.23 45.805 339.814 44.805 C 344.749 42.923 349.612 39.963 352.347 35.307 C 354.424 31.804 354.32 27.489 353.386 23.658 C 352.288 18.686 347.443 14.77 342.325 14.944 C 338.783 14.968 335.246 14.923 331.711 14.96 C 330.111 14.923 328.605 16.313 328.625 17.939 C 328.607 42.929 328.634 67.924 328.619 92.918 C 324.016 92.91 319.416 92.918 314.812 92.91 C 314.802 66.008 314.819 39.096 314.802 12.193 C 314.825 7.475 318.18 3.037 322.652 1.604 Z" id="path13" style="fill-opacity: 1; fill: rgb(255, 255, 255);"/>
    <path d="M 379.969 1.034 C 384.811 1.034 389.651 1.034 394.497 1.034 C 394.492 31.664 394.501 62.285 394.488 92.91 C 389.65 92.899 384.81 92.91 379.968 92.907 C 379.969 62.282 379.969 31.661 379.969 1.034 Z" id="path15" style="fill-opacity: 1; fill: rgb(255, 255, 255);"/>
    <path d="M 40.963 0.865 C 43.289 0.858 45.614 0.865 47.944 0.861 C 47.952 6.331 47.944 11.803 47.947 17.271 C 47.969 21.838 47.841 26.402 47.652 30.965 C 47.34 37.551 46.927 44.153 45.838 50.661 C 45.088 55.149 43.533 59.482 41.609 63.593 C 38.467 70.215 33.528 75.819 27.977 80.531 C 23.013 84.903 17.085 88.086 10.851 90.234 C 7.324 91.455 3.694 92.386 0 92.91 C 0.003 88.322 0.003 83.731 0 79.145 C 4.449 78.475 8.726 76.896 12.696 74.808 C 17.408 72.316 21.65 68.967 25.222 65.014 C 28.91 60.937 31.848 56.213 34.078 51.2 C 36.705 45.437 38.111 39.206 39.067 32.971 C 40.265 25.044 40.764 17.02 40.949 9.013 C 40.979 6.299 40.956 3.583 40.963 0.865 Z" id="path19" style="fill-opacity: 1; fill: rgb(255, 255, 255);"/>
    <path d="M 50.75 0.875 C 55.033 0.847 59.315 0.872 63.6 0.865 C 63.601 31.545 63.601 62.229 63.6 92.907 C 59.326 92.918 55.053 92.888 50.78 92.928 C 50.728 83.147 50.773 73.357 50.758 63.577 C 50.752 42.678 50.766 21.778 50.75 0.875 Z" id="path21" style="fill-opacity: 1; fill: rgb(255, 255, 255);"/>
    <path d="M 66.458 0.865 C 68.773 0.861 71.085 0.858 73.397 0.865 C 73.321 10.22 73.641 19.595 74.755 28.886 C 75.668 36.106 76.956 43.38 79.831 50.104 C 82.556 56.609 86.485 62.657 91.605 67.535 C 96.497 72.198 102.419 75.783 108.857 77.844 C 110.653 78.415 112.489 78.865 114.358 79.143 C 114.357 83.729 114.354 88.314 114.358 92.9 C 110.689 92.401 107.091 91.454 103.589 90.264 C 99.42 88.815 95.387 86.935 91.682 84.522 C 88.978 82.789 86.519 80.706 84.158 78.535 C 80.264 74.942 76.781 70.865 74.162 66.241 C 72.116 62.643 70.622 58.755 69.451 54.793 C 68.378 50.81 67.923 46.686 67.506 42.592 C 66.701 33.736 66.4 24.839 66.456 15.952 C 66.458 10.923 66.456 5.895 66.458 0.865 Z" id="path23" style="fill-opacity: 1; fill: rgb(255, 255, 255);"/>
    <path d="M 50.75 0.875 C 50.765 21.777 50.753 42.678 50.758 63.575 C 50.772 73.355 50.726 83.142 50.78 92.927 C 55.053 92.888 59.327 92.917 63.6 92.906 C 63.601 62.228 63.601 31.545 63.6 0.861 C 59.317 0.872 55.034 0.848 50.75 0.875" id="path25" style="fill-opacity: 1; fill: rgb(255, 255, 255);"/>
    <path d="M 66.458 0.865 C 66.456 5.893 66.458 10.923 66.458 15.95 C 66.401 24.834 66.703 33.733 67.508 42.59 C 67.925 46.684 68.38 50.808 69.453 54.791 C 70.622 58.753 72.118 62.642 74.164 66.239 C 76.782 70.863 80.266 74.94 84.16 78.533 C 86.523 80.707 88.98 82.787 91.684 84.52 C 95.389 86.933 99.422 88.81 103.591 90.262 C 107.092 91.451 110.691 92.396 114.36 92.898 C 114.356 88.312 114.359 83.727 114.36 79.141 C 112.493 78.867 110.654 78.413 108.859 77.842 C 102.421 75.781 96.498 72.196 91.607 67.533 C 86.487 62.661 82.558 56.609 79.833 50.102 C 76.958 43.378 75.67 36.104 74.757 28.884 C 73.642 19.593 73.323 10.218 73.399 0.863 C 71.084 0.858 68.771 0.861 66.458 0.865" id="path27" style="fill-opacity: 1; fill: rgb(255, 255, 255);"/>
    <path d="M 432.911 59.248 L 434.584 60.562 C 440.437 65.1 447.484 68.804 455.01 68.804 C 458.235 68.804 463.371 67.491 463.371 63.427 C 463.371 59.366 459.07 59.009 456.085 58.411 L 449.514 57.218 C 436.734 54.948 425.983 47.421 425.983 33.325 C 425.982 11.945 445.454 0 465.044 0 C 475.316 0 484.752 2.508 493.592 7.884 L 484.752 30.938 C 479.139 27.117 472.809 24.13 465.761 24.13 C 462.894 24.13 458.712 25.203 458.712 28.906 C 458.712 32.252 462.775 32.729 465.281 33.325 L 472.688 35 C 486.543 38.104 496.578 45.511 496.578 60.801 C 496.578 82.301 476.988 92.934 457.518 92.934 C 446.168 92.934 433.03 89.827 422.876 84.691 L 432.911 59.248 Z" id="path31" style="fill-opacity: 1; fill: rgb(255, 255, 255);"/>
    <path d="M 498.126 1.433 L 566.929 1.433 L 566.929 26.7 L 548.893 26.751 L 548.893 91.5 L 516.164 91.5 L 516.164 26.75 L 498.126 26.7 L 498.126 1.433 Z" id="path33" style="fill-opacity: 1; fill: rgb(255, 255, 255);"/>
  </g>
</svg>
